dist/img/programms/skills_5.svg

<svg width="800" height="290" viewBox="0 0 800 290" fill="none" xmlns="http://www.w3.org/2000/svg">
<path d="M140.809 134.103L398.706 75.6797C399.431 75.5155 400.172 75.4326 400.915 75.4326L653.756 75.4326" stroke="#04412B" stroke-dasharray="6 6"/>
<path d="M140.809 134.103L329.305 169.968C329.921 170.085 330.546 170.144 331.174 170.144L541.444 170.144" stroke="#04412B" stroke-dasharray="6 6"/>
<path d="M140.809 134.103L249.358 241.837C251.232 243.696 253.764 244.739 256.403 244.739L421.589 244.739" stroke="#04412B" stroke-dasharray="6 6"/>
<path d="M700.193 75.4328C700.193 101.079 679.402 121.869 653.756 121.869C628.11 121.869 607.32 101.079 607.32 75.4328C607.32 49.7867 628.11 28.9963 653.756 28.9963C679.402 28.9963 700.193 49.7867 700.193 75.4328Z" fill="#FBF9F0" stroke="#04412B"/>
<path d="M587.88 169.306C587.88 194.952 567.09 215.742 541.444 215.742C515.798 215.742 495.008 194.952 495.008 169.306C495.008 143.66 515.798 122.869 541.444 122.869C567.09 122.869 587.88 143.66 587.88 169.306Z" fill="#FBF9F0" stroke="#04412B"/>
<path d="M468.863 243.063C468.863 268.709 448.073 289.5 422.427 289.5C396.781 289.5 375.991 268.709 375.991 243.063C375.991 217.417 396.781 196.627 422.427 196.627C448.073 196.627 468.863 217.417 468.863 243.063Z" fill="#FBF9F0" stroke="#04412B"/>
<path d="M80.6011 56.0178C113.388 47.8155 124.318 56.0176 135.247 69.6794C146.176 56.0176 157.106 47.8154 189.893 56.0178V80.6009H217.22C225.423 113.389 217.22 124.318 203.558 135.248C217.22 146.177 225.422 157.106 217.22 189.894H189.892L189.893 217.219C157.105 225.422 146.176 217.219 135.247 203.558C124.318 217.219 113.388 225.422 80.6004 217.22V189.895H56.5491C48.3468 157.108 56.5489 146.178 70.2106 135.249C56.5489 124.32 48.3467 113.391 56.5491 80.6029H80.6004L80.6011 56.0178Z" fill="#FBF9F0"/>
<path d="M80.6011 56.0178L80.4797 55.5328L80.1011 55.6275L80.1011 56.0178L80.6011 56.0178ZM135.247 69.6794L134.857 69.9917L135.247 70.4798L135.637 69.9917L135.247 69.6794ZM189.893 56.0178H190.393L190.393 55.6275L190.014 55.5328L189.893 56.0178ZM189.893 80.6009H189.393L189.393 81.1009L189.893 81.1009V80.6009ZM217.22 80.6009L217.705 80.4795L217.611 80.1009L217.22 80.1009V80.6009ZM203.558 135.248L203.246 134.857L202.758 135.248L203.246 135.638L203.558 135.248ZM217.22 189.894V190.394H217.61L217.705 190.015L217.22 189.894ZM189.892 189.894V189.394H189.392L189.392 189.894L189.892 189.894ZM189.893 217.219L190.014 217.704L190.393 217.609L190.393 217.219L189.893 217.219ZM135.247 203.558L135.637 203.245L135.247 202.757L134.857 203.245L135.247 203.558ZM80.6004 217.22H80.1004L80.1004 217.61L80.479 217.705L80.6004 217.22ZM80.6004 189.895H81.1004L81.1004 189.395L80.6004 189.395V189.895ZM56.5491 189.895L56.0641 190.017L56.1588 190.395H56.5491V189.895ZM70.2106 135.249L70.523 135.64L71.011 135.249L70.523 134.859L70.2106 135.249ZM56.5491 80.6029V80.1029L56.1588 80.1029L56.0641 80.4816L56.5491 80.6029ZM80.6004 80.6029V81.1029L81.1004 81.1029L81.1004 80.6029L80.6004 80.6029ZM80.7224 56.5029C97.0747 52.4121 107.895 52.4342 115.963 55.1239C124.02 57.8102 129.41 63.1827 134.857 69.9917L135.637 69.367C130.155 62.5142 124.616 56.9548 116.279 54.1752C107.952 51.399 96.9147 51.4213 80.4797 55.5328L80.7224 56.5029ZM135.637 69.9917C141.085 63.1828 146.474 57.8102 154.531 55.1239C162.599 52.4341 173.419 52.412 189.772 56.5029L190.014 55.5328C173.579 51.4212 162.542 51.399 154.215 54.1752C145.878 56.9548 140.339 62.5142 134.857 69.367L135.637 69.9917ZM189.393 56.0178L189.393 80.6009H190.393L190.393 56.0178H189.393ZM189.893 81.1009L217.22 81.1009V80.1009L189.893 80.1009V81.1009ZM216.735 80.7222C220.826 97.0747 220.804 107.896 218.114 115.963C215.427 124.02 210.055 129.41 203.246 134.857L203.87 135.638C210.723 130.156 216.283 124.616 219.063 116.279C221.839 107.953 221.817 96.9147 217.705 80.4795L216.735 80.7222ZM203.246 135.638C210.055 141.085 215.427 146.475 218.113 154.532C220.803 162.599 220.825 173.42 216.734 189.773L217.705 190.015C221.816 173.58 221.838 162.542 219.062 154.216C216.283 145.879 210.723 140.339 203.87 134.857L203.246 135.638ZM217.22 189.394L189.892 189.394V190.394L217.22 190.394V189.394ZM189.392 189.894L189.393 217.219L190.393 217.219L190.392 189.894L189.392 189.894ZM189.772 216.734C173.419 220.825 162.598 220.803 154.531 218.113C146.474 215.427 141.085 210.054 135.637 203.245L134.857 203.87C140.339 210.723 145.878 216.282 154.215 219.062C162.542 221.838 173.579 221.816 190.014 217.704L189.772 216.734ZM134.857 203.245C129.41 210.054 124.02 215.427 115.962 218.113C107.895 220.803 97.0742 220.826 80.7217 216.735L80.479 217.705C96.9142 221.816 107.952 221.838 116.279 219.062C124.616 216.282 130.155 210.723 135.637 203.87L134.857 203.245ZM81.1004 217.22V189.895H80.1004V217.22H81.1004ZM80.6004 189.395L56.5491 189.395V190.395L80.6004 190.395V189.395ZM57.0342 189.774C52.9434 173.422 52.9655 162.601 55.6552 154.534C58.3415 146.476 63.714 141.087 70.523 135.64L69.8983 134.859C63.0455 140.341 57.4861 145.881 54.7065 154.217C51.9303 162.544 51.9526 173.582 56.0641 190.017L57.0342 189.774ZM70.523 134.859C63.714 129.412 58.3415 124.022 55.6551 115.965C52.9654 107.898 52.9433 97.0768 57.0342 80.7243L56.0641 80.4816C51.9525 96.9168 51.9303 107.955 54.7065 116.281C57.486 124.618 63.0455 130.157 69.8983 135.64L70.523 134.859ZM56.5491 81.1029L80.6004 81.1029V80.1029L56.5491 80.1029V81.1029ZM81.1004 80.6029L81.1011 56.0178L80.1011 56.0178L80.1004 80.6029L81.1004 80.6029Z" fill="#04412B"/>
</svg>

<svg width="800" height="290" viewBox="0 0 800 290" fill="none" xmlns="http://www.w3.org/2000/svg"><path d="M140.809 134.103L398.706 75.68a10.001 10.001 0 012.209-.247h252.841m-512.947 58.67l188.496 35.865a10.01 10.01 0 001.869.176h210.27m-400.635-36.041l108.549 107.734a10.003 10.003 0 007.045 2.902h165.186" stroke="#04412B" stroke-dasharray="6 6"/><path d="M700.193 75.433c0 25.646-20.791 46.436-46.437 46.436-25.646 0-46.436-20.79-46.436-46.436s20.79-46.437 46.436-46.437 46.437 20.79 46.437 46.437zM587.88 169.306c0 25.646-20.79 46.436-46.436 46.436s-46.436-20.79-46.436-46.436 20.79-46.437 46.436-46.437 46.436 20.791 46.436 46.437zm-119.017 73.757c0 25.646-20.79 46.437-46.436 46.437s-46.436-20.791-46.436-46.437c0-25.646 20.79-46.436 46.436-46.436s46.436 20.79 46.436 46.436z" fill="#FBF9F0" stroke="#04412B"/><path d="M80.601 56.018c32.787-8.203 43.717 0 54.646 13.661 10.929-13.661 21.859-21.864 54.646-13.661V80.6h27.327c8.203 32.788 0 43.717-13.662 54.647 13.662 10.929 21.864 21.858 13.662 54.646h-27.328l.001 27.325c-32.788 8.203-43.717 0-54.646-13.661-10.929 13.661-21.859 21.864-54.647 13.662v-27.325H56.55c-8.203-32.787-.001-43.717 13.66-54.646-13.661-10.929-21.863-21.858-13.66-54.646H80.6l.001-24.585z" fill="#FBF9F0"/><path d="M80.601 56.018l-.121-.485-.379.094v.39h.5zm54.646 13.661l-.39.313.39.488.39-.488-.39-.313zm54.646-13.661h.5v-.39l-.379-.095-.121.485zm0 24.583h-.5v.5h.5v-.5zm27.327 0l.485-.121-.094-.38h-.391v.5zm-13.662 54.647l-.312-.391-.488.391.488.39.312-.39zm13.662 54.646v.5h.39l.095-.379-.485-.121zm-27.328 0v-.5h-.5v.5h.5zm.001 27.325l.121.485.379-.095v-.39h-.5zm-54.646-13.661l.39-.313-.39-.488-.39.488.39.313zM80.6 217.22h-.5v.39l.379.095.121-.485zm0-27.325h.5v-.5h-.5v.5zm-24.05 0l-.486.122.095.378h.39v-.5zm13.66-54.646l.313.391.488-.391-.488-.39-.312.39zM56.55 80.603v-.5h-.391l-.095.379.485.12zm24.05 0v.5h.5v-.5h-.5zm.122-24.1c16.353-4.09 27.173-4.069 35.241-1.38 8.057 2.687 13.447 8.06 18.894 14.869l.78-.625c-5.482-6.853-11.021-12.412-19.358-15.192-8.327-2.776-19.364-2.754-35.8 1.358l.243.97zm54.915 13.489c5.448-6.81 10.837-12.182 18.894-14.868 8.068-2.69 18.888-2.712 35.241 1.379l.242-.97c-16.435-4.112-27.472-4.134-35.799-1.358-8.337 2.78-13.876 8.34-19.358 15.192l.78.625zm53.756-13.974V80.6h1V56.018h-1zm.5 25.083h27.327v-1h-27.327v1zm26.842-.379c4.091 16.353 4.069 27.174 1.379 35.241-2.687 8.057-8.059 13.447-14.868 18.894l.624.781c6.853-5.482 12.413-11.022 15.193-19.359 2.776-8.326 2.754-19.364-1.358-35.8l-.97.243zm-13.489 54.916c6.809 5.447 12.181 10.837 14.867 18.894 2.69 8.067 2.712 18.888-1.379 35.241l.971.242c4.111-16.435 4.133-27.473 1.357-35.799-2.779-8.337-8.339-13.877-15.192-19.359l-.624.781zm13.974 53.756h-27.328v1h27.328v-1zm-27.828.5l.001 27.325h1l-.001-27.325h-1zm.38 26.84c-16.353 4.091-27.174 4.069-35.241 1.379-8.057-2.686-13.446-8.059-18.894-14.868l-.78.625c5.482 6.853 11.021 12.412 19.358 15.192 8.327 2.776 19.364 2.754 35.799-1.358l-.242-.97zm-54.915-13.489c-5.447 6.809-10.837 12.182-18.895 14.868-8.067 2.69-18.888 2.713-35.24-1.378l-.243.97c16.435 4.111 27.473 4.133 35.8 1.357 8.337-2.78 13.876-8.339 19.358-15.192l-.78-.625zM81.1 217.22v-27.325h-1v27.325h1zm-.5-27.825H56.55v1H80.6v-1zm-23.566.379c-4.09-16.352-4.069-27.173-1.379-35.24 2.687-8.058 8.059-13.447 14.868-18.894l-.625-.781c-6.852 5.482-12.412 11.022-15.191 19.358-2.777 8.327-2.754 19.365 1.357 35.8l.97-.243zm13.489-54.915c-6.809-5.447-12.181-10.837-14.868-18.894-2.69-8.067-2.712-18.888 1.38-35.24l-.97-.243c-4.112 16.435-4.135 27.473-1.358 35.799 2.779 8.337 8.338 13.876 15.191 19.359l.625-.781zM56.549 81.103H80.6v-1H56.55v1zm24.551-.5l.001-24.585h-1v24.585h1z" fill="#04412B"/></svg>
